X:1
T:Angel Voices (Monk), 85.85.843
T:Angel Voices (Monk), 85.85.843
T:Edwin George Monk, 1861
T:Public Domain Courtesy of the Cyber Hymnal™
C:Edwin George Monk, 1861
Z:Public Domain
Z:Courtesy of the Cyber Hymnal™
%%score ( 1 2 ) ( 3 4 )
L:1/8
Q:1/4=115
M:4/4
K:C
V:1 treble 
V:2 treble 
V:3 bass 
V:4 bass 
V:1
 [CE]2 [EG]2 [FA]2 G2 | [Fc]2 [FA]2 [DG]2 [B,E]2 | C2 [CD]2 [CE]2 [A,CF]2 | D8 | %4
 [CE]2 [CG]2 [Cc]2 [CEA]2 | d3 [D^F] c [DGB]2 [DG]2 | [CEA]2 E2 [CEG]2 [CD^F]2 | %7
 G8 ([B,D][A,D]) [B,D]4 | G2 [^FG]2 [EG]2 [EA]2 | F2 [EF]2 [DF]2 [DG]2 | E2 [CG]2 [FA]2 [Ec]2 | %11
 [Gd]6 [DFB]2 | c8 |] %13
V:2
 x6 (FE) | x8 | C2 x6 | (C4 B,4) | x8 | D2 c x6 | x2 E2 x4 | [CD]2 x12 | G2 x6 | F2 x6 | E2 x6 | %11
 x8 | [EG]8 |] %13
V:3
 [C,G,]2 [C,C]2 [C,B,]2 [C,C]2 | [C,A,]2 [C,F,]2 [B,,G,]2 [G,,G,]2 | %2
 [A,,E,]2 [A,,F,]2 [G,,G,]2 [F,,F,]2 | [G,,G,]8 | [C,G,]2 [E,G,]2 A,3 G, | %5
 [^F,A,]2 [D,A,]2 G,2 [B,,G,]2 x | [C,A,]2 A,2 [A,,A,]2 [D,A,]2 | G,8 x6 | %8
 [E,B,]2 [D,B,]2 [^C,B,]2 [C,A,]2 | [D,A,]2 [C,A,]2 [B,,A,]2 [B,,G,]2 | %10
 [C,G,]2 [E,G,]2 [F,C]2 [A,C]2 | (C4 B,2 [G,,G,]2) | C8 |] %13
V:4
 x8 | x8 | x8 | x8 | x4 A,3 G, | x4 G,2 x3 | x2 (C,B,,) x4 | G,,8 x6 | x8 | x8 | x8 | G,6 x2 | %12
 C,8 |] %13

